; generated by PrusaSlicer 2.2.0+linux-x64 on 2020-11-01 at 15:17:11 UTC

; 

; external perimeters extrusion width = 0.45mm
; perimeters extrusion width = 0.45mm
; infill extrusion width = 0.45mm
; solid infill extrusion width = 0.45mm
; top infill extrusion width = 0.40mm
; first layer extrusion width = 0.42mm

M73 P0 R25
M73 Q0 S25
M201 X1000 Y1000 Z200 E5000 ; sets maximum accelerations, mm/sec^2
M203 X200 Y200 Z12 E120 ; sets maximum feedrates, mm/sec
M204 P1250 R1250 T1250 ; sets acceleration (P, T) and retract acceleration (R), mm/sec^2
M205 X8.00 Y8.00 Z0.40 E4.50 ; sets the jerk limits, mm/sec
M205 S0 T0 ; sets the minimum extruding and travel feed rate, mm/sec
M107
M862.3 P "MK3S" ; printer model check
M862.1 P0.4 ; nozzle diameter check
M115 U3.9.1 ; tell printer latest fw version
G90 ; use absolute coordinates
M83 ; extruder relative mode
M104 S210 ; set extruder temp
M140 S62 ; set bed temp
M190 S62 ; wait for bed temp
M109 S210 ; wait for extruder temp
G28 W ; home all without mesh bed level
G80 ; mesh bed leveling
G1 Y-3.0 F1000.0 ; go outside print area
G92 E0.0
G1 X60.0 E9.0 F1000.0 ; intro line
M73 Q0 S25
M73 P0 R24
G1 X100.0 E12.5 F1000.0 ; intro line
G92 E0.0
M221 S95

; Don't change E values below. Excessive value can damage the printer.
M907 E430 ; set extruder motor current
G21 ; set units to millimeters
G90 ; use absolute coordinates
M83 ; use relative distances for extrusion
M900 K0.05 ; Filament gcode LA 1.5
M900 K30 ; Filament gcode LA 1.0
;BEFORE_LAYER_CHANGE
G92 E0.0
;0.2


G1 E-0.80000 F2100.00000
G1 Z0.600 F10800.000
;AFTER_LAYER_CHANGE
;0.2
G1 X94.978 Y87.533
G1 Z0.200
G1 E0.80000 F2100.00000
M204 S1000
G1 F1200.000
G1 X95.967 Y86.602 E0.04259
G1 X96.805 Y86.093 E0.03073
G1 X97.718 Y85.758 E0.03049
G1 X99.092 Y85.561 E0.04354
G1 X150.866 Y85.561 E1.62332
G1 X152.018 Y85.687 E0.03633
G1 X152.999 Y86.010 E0.03239
G1 X154.383 Y86.882 E0.05131
G1 X155.094 Y87.621 E0.03215
G1 X155.710 Y88.612 E0.03657
G1 X156.095 Y89.704 E0.03633
G1 X156.231 Y90.740 E0.03275
G1 X156.234 Y119.222 E0.89303
G1 X156.092 Y120.310 E0.03442
G1 X155.667 Y121.473 E0.03882
G1 X155.020 Y122.470 E0.03727
G1 X154.033 Y123.398 E0.04247
G1 X153.195 Y123.907 E0.03073
G1 X152.282 Y124.242 E0.03049
G1 X150.908 Y124.439 E0.04354
G1 X99.092 Y124.439 E1.62464
G1 X97.919 Y124.299 E0.03704
G1 X96.750 Y123.879 E0.03894
G1 X95.733 Y123.223 E0.03799
G1 X94.802 Y122.233 E0.04259
G1 X94.295 Y121.399 E0.03061
G1 X93.961 Y120.489 E0.03037
G1 X93.762 Y119.142 E0.04270
G1 X93.762 Y90.862 E0.88671
G1 X93.903 Y89.712 E0.03632
G1 X94.324 Y88.544 E0.03894
G1 X94.945 Y87.583 E0.03587
G1 F8640.000
G1 X95.967 Y86.602 E-0.32710
G1 X96.805 Y86.093 E-0.22629
G1 X97.645 Y85.785 E-0.20661
G1 E-0.04000 F2100.00000
G1 Z0.800 F10800.000
G1 X136.800 Y99.489
G1 Z0.200
G1 E0.80000 F2100.00000
G1 F1200.000
G1 X138.171 Y100.855 E0.06065
G1 X139.586 Y100.855 E0.04437
G1 X141.577 Y102.839 E0.08812
G1 X141.577 Y99.843 E0.09392
G1 X141.319 Y99.722 E0.00893
G1 X141.216 Y99.644 E0.00403
G1 X141.131 Y99.548 E0.00402
G1 X141.067 Y99.437 E0.00404
G1 X141.026 Y99.313 E0.00409
G1 X141.012 Y99.178 E0.00426
G1 X141.025 Y99.050 E0.00403
G1 X141.061 Y98.933 E0.00384
G1 X141.135 Y98.804 E0.00467
G1 X141.234 Y98.697 E0.00459
G1 X141.356 Y98.615 E0.00461
G1 X141.496 Y98.562 E0.00467
G1 X141.652 Y98.543 E0.00493
G1 X141.779 Y98.556 E0.00401
G1 X141.896 Y98.593 E0.00386
G1 X142.027 Y98.666 E0.00469
G1 X142.134 Y98.766 E0.00459
G1 X142.216 Y98.887 E0.00459
G1 X142.269 Y99.025 E0.00465
G1 X142.287 Y99.180 E0.00488
G1 X142.273 Y99.313 E0.00419
G1 X142.233 Y99.437 E0.00409
G1 X142.168 Y99.548 E0.00404
G1 X142.083 Y99.644 E0.00402
G1 X141.980 Y99.722 E0.00403
G1 X141.723 Y99.843 E0.00893
G1 X141.723 Y102.984 E0.09849
G1 X143.661 Y104.916 E0.08581
G1 X146.116 Y104.916 E0.07698
G1 X144.294 Y103.100 E0.08067
G1 X144.294 Y101.310 E0.05613
G1 X144.036 Y101.188 E0.00893
G1 X143.933 Y101.111 E0.00403
G1 X143.848 Y101.015 E0.00402
G1 X143.784 Y100.903 E0.00404
G1 X143.743 Y100.779 E0.00409
G1 X143.729 Y100.644 E0.00426
G1 X143.742 Y100.516 E0.00403
G1 X143.778 Y100.400 E0.00384
G1 X143.852 Y100.270 E0.00467
G1 X143.952 Y100.163 E0.00459
G1 X144.073 Y100.081 E0.00461
G1 X144.213 Y100.029 E0.00467
G1 X144.369 Y100.010 E0.00493
G1 X144.496 Y100.023 E0.00401
G1 X144.614 Y100.059 E0.00386
G1 X144.744 Y100.133 E0.00469
G1 X144.851 Y100.232 E0.00459
G1 X144.933 Y100.353 E0.00459
G1 X144.986 Y100.492 E0.00465
G1 X145.005 Y100.646 E0.00488
G1 X144.990 Y100.779 E0.00419
G1 X144.950 Y100.903 E0.00409
G1 X144.885 Y101.015 E0.00404
G1 X144.800 Y101.111 E0.00402
G1 X144.697 Y101.188 E0.00403
G1 X144.440 Y101.310 E0.00893
G1 X144.440 Y103.041 E0.05427
G1 X146.394 Y104.988 E0.08651
G1 X144.496 Y106.879 E0.08400
G1 X144.496 Y108.666 E0.05604
G1 X144.754 Y108.788 E0.00893
G1 X144.857 Y108.865 E0.00403
G1 X144.942 Y108.961 E0.00402
G1 X145.006 Y109.072 E0.00404
G1 X145.047 Y109.196 E0.00409
G1 X145.061 Y109.332 E0.00426
G1 X145.049 Y109.459 E0.00403
G1 X145.012 Y109.576 E0.00384
G1 X144.938 Y109.706 E0.00467
G1 X144.839 Y109.813 E0.00459
G1 X144.717 Y109.895 E0.00461
G1 X144.577 Y109.947 E0.00467
G1 X144.421 Y109.966 E0.00493
G1 X144.294 Y109.953 E0.00400
G1 X144.177 Y109.917 E0.00386
G1 X144.047 Y109.843 E0.00469
G1 X143.939 Y109.744 E0.00459
G1 X143.857 Y109.623 E0.00459
G1 X143.804 Y109.484 E0.00465
G1 X143.786 Y109.330 E0.00488
G1 X143.800 Y109.197 E0.00419
G1 X143.841 Y109.072 E0.00409
G1 X143.905 Y108.961 E0.00404
G1 X143.990 Y108.865 E0.00402
G1 X144.093 Y108.788 E0.00403
G1 X144.350 Y108.666 E0.00893
G1 X144.350 Y107.024 E0.05148
G1 X142.008 Y109.358 E0.10367
G1 X142.112 Y109.694 E0.01100
G1 X142.105 Y109.911 E0.00681
G1 X142.069 Y110.027 E0.00384
G1 X141.995 Y110.157 E0.00467
G1 X141.895 Y110.264 E0.00459
G1 X141.773 Y110.346 E0.00461
G1 X141.634 Y110.398 E0.00467
G1 X141.478 Y110.417 E0.00493
G1 X141.351 Y110.404 E0.00400
G1 X141.233 Y110.368 E0.00386
G1 X141.103 Y110.294 E0.00469
G1 X140.995 Y110.195 E0.00459
G1 X140.913 Y110.074 E0.00459
G1 X140.861 Y109.935 E0.00465
G1 X140.842 Y109.780 E0.00489
G1 X140.855 Y109.654 E0.00398
G1 X140.891 Y109.537 E0.00384
G1 X140.965 Y109.408 E0.00467
G1 X141.065 Y109.301 E0.00459
G1 X141.186 Y109.219 E0.00461
G1 X141.326 Y109.166 E0.00467
G1 X141.485 Y109.147 E0.00501
G1 X141.569 Y109.154 E0.00266
G1 X141.905 Y109.256 E0.01101
G1 X144.248 Y106.921 E0.10373
G1 X142.544 Y106.921 E0.05343
G1 X142.422 Y107.178 E0.00890
G1 X142.345 Y107.280 E0.00403
G1 X142.249 Y107.365 E0.00403
G1 X142.136 Y107.429 E0.00405
G1 X142.012 Y107.470 E0.00412
G1 X141.876 Y107.484 E0.00429
G1 X141.747 Y107.471 E0.00405
G1 X141.629 Y107.435 E0.00386
G1 X141.499 Y107.361 E0.00469
G1 X141.392 Y107.262 E0.00459
G1 X141.309 Y107.141 E0.00459
G1 X141.257 Y107.002 E0.00465
G1 X141.238 Y106.847 E0.00489
G1 X141.251 Y106.721 E0.00398
G1 X141.287 Y106.604 E0.00384
G1 X141.361 Y106.475 E0.00467
G1 X141.461 Y106.368 E0.00459
G1 X141.583 Y106.286 E0.00461
G1 X141.722 Y106.233 E0.00467
G1 X141.878 Y106.215 E0.00491
G1 X142.012 Y106.229 E0.00422
G1 X142.136 Y106.269 E0.00412
G1 X142.249 Y106.334 E0.00405
G1 X142.345 Y106.419 E0.00403
G1 X142.422 Y106.521 E0.00403
G1 X142.544 Y106.777 E0.00890
G1 X144.393 Y106.777 E0.05797
G1 X146.116 Y105.060 E0.07629
G1 X141.284 Y105.060 E0.15152
G1 X138.723 Y107.612 E0.11337
G1 X138.723 Y109.400 E0.05604
G1 X138.980 Y109.521 E0.00893
G1 X139.083 Y109.598 E0.00403
G1 X139.168 Y109.694 E0.00402
G1 X139.232 Y109.806 E0.00404
G1 X139.273 Y109.930 E0.00409
G1 X139.287 Y110.065 E0.00426
G1 X139.275 Y110.193 E0.00403
G1 X139.238 Y110.309 E0.00384
G1 X139.164 Y110.439 E0.00467
G1 X139.065 Y110.546 E0.00459
G1 X138.943 Y110.628 E0.00461
G1 X138.803 Y110.680 E0.00467
G1 X138.647 Y110.699 E0.00493
G1 X138.520 Y110.686 E0.00400
G1 X138.403 Y110.650 E0.00386
G1 X138.273 Y110.576 E0.00469
G1 X138.165 Y110.477 E0.00459
G1 X138.083 Y110.356 E0.00459
G1 X138.030 Y110.217 E0.00465
G1 X138.012 Y110.063 E0.00488
G1 X138.026 Y109.930 E0.00419
G1 X138.067 Y109.806 E0.00409
G1 X138.131 Y109.694 E0.00404
G1 X138.216 Y109.598 E0.00402
G1 X138.319 Y109.521 E0.00403
G1 X138.576 Y109.400 E0.00893
G1 X138.576 Y107.758 E0.05148
G1 X136.529 Y109.798 E0.09063
G1 X134.676 Y109.798 E0.05810
G1 X134.554 Y110.054 E0.00890
G1 X134.476 Y110.157 E0.00403
G1 X134.380 Y110.242 E0.00403
G1 X134.268 Y110.306 E0.00405
G1 X134.143 Y110.347 E0.00412
G1 X134.007 Y110.361 E0.00429
G1 X133.879 Y110.348 E0.00405
G1 X133.761 Y110.312 E0.00386
G1 X133.631 Y110.238 E0.00469
G1 X133.523 Y110.139 E0.00459
G1 X133.441 Y110.017 E0.00459
G1 X133.389 Y109.879 E0.00465
G1 X133.370 Y109.724 E0.00489
G1 X133.383 Y109.598 E0.00398
G1 X133.419 Y109.481 E0.00384
G1 X133.493 Y109.351 E0.00467
G1 X133.592 Y109.244 E0.00459
G1 X133.714 Y109.162 E0.00461
G1 X133.854 Y109.110 E0.00467
G1 X134.009 Y109.091 E0.00491
G1 X134.143 Y109.105 E0.00422
G1 X134.268 Y109.146 E0.00412
G1 X134.380 Y109.210 E0.00405
G1 X134.476 Y109.295 E0.00403
G1 X134.554 Y109.398 E0.00403
G1 X134.676 Y109.654 E0.00890
G1 X136.468 Y109.654 E0.05619
G1 X138.474 Y107.655 E0.08881
G1 X136.770 Y107.655 E0.05343
G1 X136.648 Y107.911 E0.00890
G1 X136.571 Y108.013 E0.00403
G1 X136.475 Y108.098 E0.00403
G1 X136.363 Y108.162 E0.00405
G1 X136.238 Y108.203 E0.00412
G1 X136.102 Y108.218 E0.00429
G1 X135.973 Y108.205 E0.00405
G1 X135.855 Y108.168 E0.00386
G1 X135.725 Y108.095 E0.00469
G1 X135.618 Y107.995 E0.00459
G1 X135.536 Y107.874 E0.00459
G1 X135.483 Y107.735 E0.00465
G1 X135.464 Y107.580 E0.00489
G1 X135.477 Y107.454 E0.00398
G1 X135.513 Y107.337 E0.00384
G1 X135.587 Y107.208 E0.00467
G1 X135.687 Y107.101 E0.00459
G1 X135.809 Y107.019 E0.00461
G1 X135.948 Y106.967 E0.00467
G1 X136.104 Y106.948 E0.00491
G1 X136.238 Y106.962 E0.00422
G1 X136.363 Y107.003 E0.00412
G1 X136.475 Y107.067 E0.00405
G1 X136.571 Y107.152 E0.00403
G1 X136.648 Y107.254 E0.00403
G1 X136.770 Y107.511 E0.00890
G1 X138.619 Y107.511 E0.05797
G1 X141.078 Y105.060 E0.10886
G1 X134.548 Y105.060 E0.20477
G1 X133.234 Y106.369 E0.05814
G1 X133.338 Y106.704 E0.01100
G1 X133.344 Y106.790 E0.00270
G1 X133.331 Y106.921 E0.00413
G1 X133.294 Y107.038 E0.00384
G1 X133.221 Y107.167 E0.00467
G1 X133.121 Y107.275 E0.00459
G1 X132.999 Y107.357 E0.00461
G1 X132.860 Y107.409 E0.00467
G1 X132.704 Y107.428 E0.00493
G1 X132.577 Y107.415 E0.00400
G1 X132.459 Y107.379 E0.00386
G1 X132.329 Y107.305 E0.00469
G1 X132.221 Y107.206 E0.00459
G1 X132.139 Y107.084 E0.00459
G1 X132.087 Y106.946 E0.00465
G1 X132.068 Y106.791 E0.00489
G1 X132.081 Y106.665 E0.00398
G1 X132.117 Y106.548 E0.00384
G1 X132.191 Y106.418 E0.00467
G1 X132.290 Y106.311 E0.00459
G1 X132.412 Y106.229 E0.00461
G1 X132.552 Y106.177 E0.00467
G1 X132.795 Y106.164 E0.00764
G1 X133.131 Y106.267 E0.01101
G1 X134.414 Y104.988 E0.05682
G1 X133.131 Y103.709 E0.05682
G1 X132.795 Y103.812 E0.01101
G1 X132.577 Y103.805 E0.00686
G1 X132.459 Y103.769 E0.00386
G1 X132.329 Y103.695 E0.00469
G1 X132.221 Y103.596 E0.00459
G1 X132.139 Y103.474 E0.00459
G1 X132.087 Y103.336 E0.00465
G1 X132.068 Y103.181 E0.00489
G1 X132.081 Y103.055 E0.00398
G1 X132.117 Y102.938 E0.00384
G1 X132.191 Y102.808 E0.00467
G1 X132.290 Y102.701 E0.00459
G1 X132.412 Y102.619 E0.00461
G1 X132.552 Y102.567 E0.00467
G1 X132.708 Y102.548 E0.00493
G1 X132.835 Y102.561 E0.00401
G1 X132.953 Y102.597 E0.00386
G1 X133.083 Y102.671 E0.00469
G1 X133.190 Y102.770 E0.00459
G1 X133.272 Y102.892 E0.00459
G1 X133.325 Y103.030 E0.00465
G1 X133.344 Y103.188 E0.00498
G1 X133.338 Y103.272 E0.00264
G1 X133.234 Y103.607 E0.01100
G1 X134.548 Y104.916 E0.05814
G1 X143.456 Y104.916 E0.27931
G1 X141.619 Y103.086 E0.08130
G1 X139.714 Y103.086 E0.05974
G1 X139.592 Y103.342 E0.00890
G1 X139.515 Y103.445 E0.00403
G1 X139.418 Y103.529 E0.00403
G1 X139.306 Y103.594 E0.00405
G1 X139.181 Y103.634 E0.00412
G1 X139.045 Y103.649 E0.00429
G1 X138.917 Y103.636 E0.00405
G1 X138.799 Y103.599 E0.00386
G1 X138.669 Y103.526 E0.00469
G1 X138.561 Y103.427 E0.00459
G1 X138.479 Y103.305 E0.00459
G1 X138.427 Y103.167 E0.00465
G1 X138.408 Y103.012 E0.00489
G1 X138.421 Y102.885 E0.00398
G1 X138.457 Y102.769 E0.00384
G1 X138.531 Y102.639 E0.00467
G1 X138.630 Y102.532 E0.00459
G1 X138.752 Y102.450 E0.00461
G1 X138.892 Y102.398 E0.00467
G1 X139.047 Y102.379 E0.00491
G1 X139.181 Y102.393 E0.00422
G1 X139.306 Y102.434 E0.00412
G1 X139.418 Y102.498 E0.00405
G1 X139.515 Y102.583 E0.00403
G1 X139.592 Y102.685 E0.00403
G1 X139.714 Y102.942 E0.00890
G1 X141.475 Y102.942 E0.05521
G1 X139.525 Y100.999 E0.08631
G1 X138.171 Y100.999 E0.04246
G1 X136.800 Y102.364 E0.06065
G1 X136.904 Y102.699 E0.01100
G1 X136.910 Y102.785 E0.00270
G1 X136.897 Y102.916 E0.00413
G1 X136.861 Y103.033 E0.00384
G1 X136.787 Y103.163 E0.00467
G1 X136.687 Y103.270 E0.00459
G1 X136.565 Y103.352 E0.00461
G1 X136.426 Y103.404 E0.00467
G1 X136.270 Y103.423 E0.00493
G1 X136.143 Y103.410 E0.00400
G1 X136.025 Y103.374 E0.00386
G1 X135.895 Y103.300 E0.00469
G1 X135.788 Y103.201 E0.00459
G1 X135.705 Y103.080 E0.00459
G1 X135.653 Y102.941 E0.00465
G1 X135.634 Y102.786 E0.00489
G1 X135.647 Y102.660 E0.00398
G1 X135.683 Y102.543 E0.00384
G1 X135.757 Y102.414 E0.00467
G1 X135.857 Y102.306 E0.00459
G1 X135.979 Y102.224 E0.00461
G1 X136.118 Y102.172 E0.00467
G1 X136.361 Y102.159 E0.00764
G1 X136.697 Y102.262 E0.01101
G1 X137.965 Y100.999 E0.05612
G1 X134.732 Y100.999 E0.10136
G1 X134.611 Y101.255 E0.00890
G1 X134.533 Y101.358 E0.00403
G1 X134.437 Y101.442 E0.00403
G1 X134.325 Y101.507 E0.00405
G1 X134.200 Y101.547 E0.00412
G1 X134.064 Y101.562 E0.00429
G1 X133.935 Y101.549 E0.00405
G1 X133.817 Y101.512 E0.00386
G1 X133.687 Y101.439 E0.00469
G1 X133.580 Y101.340 E0.00459
G1 X133.498 Y101.218 E0.00459
G1 X133.445 Y101.080 E0.00465
G1 X133.426 Y100.925 E0.00489
G1 X133.439 Y100.799 E0.00398
G1 X133.476 Y100.682 E0.00384
G1 X133.549 Y100.552 E0.00467
G1 X133.649 Y100.445 E0.00459
G1 X133.771 Y100.363 E0.00461
G1 X133.910 Y100.311 E0.00467
G1 X134.066 Y100.292 E0.00491
G1 X134.200 Y100.306 E0.00422
G1 X134.325 Y100.347 E0.00412
G1 X134.437 Y100.411 E0.00405
G1 X134.533 Y100.496 E0.00403
G1 X134.611 Y100.598 E0.00403
G1 X134.732 Y100.855 E0.00890
G1 X137.965 Y100.855 E0.10136
G1 X136.697 Y99.591 E0.05612
G1 X136.361 Y99.694 E0.01101
G1 X136.143 Y99.687 E0.00686
G1 X136.025 Y99.651 E0.00386
G1 X135.895 Y99.577 E0.00469
G1 X135.788 Y99.478 E0.00459
G1 X135.705 Y99.357 E0.00459
G1 X135.653 Y99.218 E0.00465
G1 X135.634 Y99.063 E0.00489
G1 X135.647 Y98.937 E0.00398
G1 X135.683 Y98.820 E0.00384
G1 X135.757 Y98.691 E0.00467
G1 X135.857 Y98.584 E0.00459
G1 X135.979 Y98.502 E0.00461
G1 X136.118 Y98.449 E0.00467
G1 X136.274 Y98.431 E0.00493
G1 X136.401 Y98.443 E0.00400
G1 X136.519 Y98.480 E0.00386
G1 X136.649 Y98.553 E0.00469
G1 X136.756 Y98.653 E0.00459
G1 X136.839 Y98.774 E0.00459
G1 X136.891 Y98.913 E0.00465
G1 X136.904 Y99.154 E0.00758
G1 X136.818 Y99.432 E0.00912
G1 X136.583 Y99.825 F10800.000
G1 F8640.000
G1 X138.171 Y100.855 E-0.45326
G1 X139.499 Y100.855 E-0.30674
G1 E-0.04000 F2100.00000
G1 Z0.800 F10800.000
G1 X134.689 Y95.515
G1 Z0.200
G1 E0.80000 F2100.00000
G1 F1200.000
G1 X136.900 Y93.359 E0.09681
G1 X137.114 Y93.195 E0.00846
G1 X137.398 Y93.070 E0.00974
G1 X137.617 Y93.031 E0.00698
G1 X137.983 Y93.026 E0.01147
G1 X138.288 Y93.114 E0.00994
G1 X138.523 Y93.242 E0.00840
G1 X138.731 Y93.416 E0.00851
G1 X138.914 Y93.654 E0.00939
G1 X139.042 Y93.937 E0.00974
G1 X139.097 Y94.278 E0.01084
G1 X139.097 Y95.515 E0.03877
G1 X145.901 Y95.515 E0.21333
G1 X146.147 Y95.544 E0.00779
G1 X146.419 Y95.647 E0.00909
G1 X146.655 Y95.806 E0.00892
G1 X146.847 Y96.013 E0.00887
G1 X146.998 Y96.280 E0.00962
G1 X147.079 Y96.671 E0.01251
G1 X147.068 Y103.642 E0.21857
G1 X147.004 Y104.209 E0.01791
G1 X146.792 Y104.988 E0.02530
G1 X147.004 Y105.767 E0.02530
G1 X147.067 Y106.329 E0.01774
G1 X147.079 Y113.283 E0.21804
G1 X147.049 Y113.529 E0.00779
G1 X146.947 Y113.801 E0.00909
G1 X146.788 Y114.037 E0.00892
G1 X146.580 Y114.229 E0.00887
G1 X146.314 Y114.380 E0.00962
G1 X145.923 Y114.461 E0.01249
G1 X139.097 Y114.461 E0.21404
G1 X139.097 Y115.683 E0.03831
G1 X139.065 Y115.951 E0.00846
G1 X138.955 Y116.242 E0.00974
