; generated by PrusaSlicer 2.2.0+linux-x64 on 2020-11-01 at 13:43:12 UTC

; 

; external perimeters extrusion width = 0.45mm
; perimeters extrusion width = 0.45mm
; infill extrusion width = 0.45mm
; solid infill extrusion width = 0.45mm
; top infill extrusion width = 0.40mm
; first layer extrusion width = 0.42mm

M73 P0 R67
M73 Q0 S67
M201 X1000 Y1000 Z200 E5000 ; sets maximum accelerations, mm/sec^2
M203 X200 Y200 Z12 E120 ; sets maximum feedrates, mm/sec
M204 P1250 R1250 T1250 ; sets acceleration (P, T) and retract acceleration (R), mm/sec^2
M205 X8.00 Y8.00 Z0.40 E4.50 ; sets the jerk limits, mm/sec
M205 S0 T0 ; sets the minimum extruding and travel feed rate, mm/sec
M107
M862.3 P "MK3S" ; printer model check
M862.1 P0.4 ; nozzle diameter check
M115 U3.9.1 ; tell printer latest fw version
G90 ; use absolute coordinates
M83 ; extruder relative mode
M104 S215 ; set extruder temp
M140 S60 ; set bed temp
M190 S60 ; wait for bed temp
M109 S215 ; wait for extruder temp
G28 W ; home all without mesh bed level
G80 ; mesh bed leveling
G1 Y-3.0 F1000.0 ; go outside print area
G92 E0.0
G1 X60.0 E9.0 F1000.0 ; intro line
M73 Q0 S67
M73 P0 R67
G1 X100.0 E12.5 F1000.0 ; intro line
G92 E0.0
M221 S95

; Don't change E values below. Excessive value can damage the printer.
M907 E430 ; set extruder motor current
G21 ; set units to millimeters
G90 ; use absolute coordinates
M83 ; use relative distances for extrusion
M900 K0.05 ; Filament gcode LA 1.5
M900 K30 ; Filament gcode LA 1.0
;BEFORE_LAYER_CHANGE
G92 E0.0
;0.2


G1 E-0.80000 F2100.00000
G1 Z0.600 F10800.000
;AFTER_LAYER_CHANGE
;0.2
G1 X94.978 Y87.532
G1 Z0.200
G1 E0.80000 F2100.00000
M204 S1000
G1 F1200.000
G1 X95.967 Y86.602 E0.04259
G1 X96.805 Y86.093 E0.03073
G1 X97.715 Y85.760 E0.03038
G1 X99.093 Y85.561 E0.04368
G1 X150.866 Y85.561 E1.62329
G1 X152.018 Y85.687 E0.03633
G1 X152.999 Y86.010 E0.03239
G1 X154.383 Y86.882 E0.05131
G1 X155.094 Y87.621 E0.03215
G1 X155.708 Y88.608 E0.03645
G1 X156.094 Y89.701 E0.03634
G1 X156.231 Y90.740 E0.03286
G1 X156.234 Y119.222 E0.89302
G1 X156.092 Y120.310 E0.03442
G1 X155.667 Y121.473 E0.03882
G1 X155.020 Y122.470 E0.03727
G1 X154.033 Y123.398 E0.04247
G1 X153.195 Y123.907 E0.03073
G1 X152.285 Y124.240 E0.03038
G1 X150.908 Y124.439 E0.04364
G1 X99.092 Y124.439 E1.62464
G1 X97.919 Y124.299 E0.03704
G1 X96.750 Y123.879 E0.03894
G1 X95.732 Y123.222 E0.03799
G1 X94.802 Y122.233 E0.04259
G1 X94.295 Y121.399 E0.03061
G1 X93.961 Y120.489 E0.03038
G1 X93.762 Y119.141 E0.04273
G1 X93.762 Y90.862 E0.88667
G1 X93.903 Y89.712 E0.03632
G1 X94.324 Y88.544 E0.03894
G1 X94.945 Y87.583 E0.03587
G1 F8640.000
G1 X95.967 Y86.602 E-0.32709
G1 X96.805 Y86.093 E-0.22629
G1 X97.645 Y85.785 E-0.20662
G1 E-0.04000 F2100.00000
G1 Z0.800 F10800.000
G1 X97.412 Y89.561
G1 Z0.200
G1 E0.80000 F2100.00000
G1 F1200.000
G1 X97.761 Y89.212 E0.01550
G1 X98.180 Y88.949 E0.01550
G1 X98.647 Y88.785 E0.01550
G1 X99.182 Y88.725 E0.01690
G1 X150.818 Y88.725 E1.61900
G1 X151.353 Y88.785 E0.01690
G1 X151.820 Y88.949 E0.01550
G1 X152.239 Y89.212 E0.01550
G1 X152.588 Y89.561 E0.01550
G1 X152.851 Y89.980 E0.01550
G1 X153.015 Y90.447 E0.01550
G1 X153.075 Y90.982 E0.01690
G1 X153.075 Y119.018 E0.87904
G1 X153.015 Y119.553 E0.01690
G1 X152.851 Y120.020 E0.01550
G1 X152.588 Y120.439 E0.01550
G1 X152.239 Y120.788 E0.01550
G1 X151.820 Y121.051 E0.01550
G1 X151.353 Y121.215 E0.01550
G1 X150.818 Y121.275 E0.01690
G1 X99.182 Y121.275 E1.61900
G1 X98.647 Y121.215 E0.01690
G1 X98.180 Y121.051 E0.01550
G1 X97.761 Y120.788 E0.01550
G1 X97.412 Y120.439 E0.01550
G1 X97.149 Y120.020 E0.01550
G1 X96.985 Y119.553 E0.01550
G1 X96.925 Y119.018 E0.01690
G1 X96.925 Y90.982 E0.87904
G1 X96.985 Y90.447 E0.01690
G1 X97.149 Y89.980 E0.01550
G1 X97.380 Y89.612 E0.01362
G1 X97.115 Y89.325 F10800.000
G1 F1200.000
G1 X97.525 Y88.915 E0.01817
G1 X98.015 Y88.607 E0.01817
G1 X98.562 Y88.415 E0.01817
G1 X99.161 Y88.348 E0.01889
G1 X150.839 Y88.348 E1.62033
G1 X151.438 Y88.415 E0.01889
G1 X151.985 Y88.607 E0.01817
G1 X152.475 Y88.915 E0.01817
G1 X152.885 Y89.325 E0.01817
G1 X153.193 Y89.815 E0.01817
G1 X153.385 Y90.362 E0.01817
G1 X153.452 Y90.961 E0.01889
G1 X153.452 Y119.039 E0.88036
G1 X153.385 Y119.638 E0.01889
G1 X153.193 Y120.185 E0.01817
G1 X152.885 Y120.675 E0.01817
G1 X152.475 Y121.085 E0.01817
G1 X151.985 Y121.393 E0.01817
G1 X151.438 Y121.585 E0.01817
G1 X150.839 Y121.652 E0.01889
G1 X99.161 Y121.652 E1.62033
G1 X98.562 Y121.585 E0.01889
G1 X98.015 Y121.393 E0.01817
G1 X97.525 Y121.085 E0.01817
G1 X97.115 Y120.675 E0.01817
G1 X96.807 Y120.185 E0.01817
G1 X96.615 Y119.638 E0.01817
G1 X96.548 Y119.039 E0.01889
G1 X96.548 Y90.961 E0.88036
G1 X96.615 Y90.362 E0.01889
G1 X96.807 Y89.815 E0.01817
G1 X97.083 Y89.376 E0.01629
G1 X97.511 Y89.384 F10800.000
G1 F8640.000
G1 X97.525 Y88.915 E-0.14732
G1 X98.015 Y88.607 E-0.13378
G1 X98.562 Y88.415 E-0.13378
G1 X99.161 Y88.348 E-0.13913
G1 X100.053 Y88.348 E-0.20597
G1 E-0.04000 F2100.00000
G1 Z0.800 F10800.000
G1 X152.799 Y90.174
G1 Z0.200
G1 E0.80000 F2100.00000
G1 F1200.000
G1 X152.057 Y89.432 E0.03309
G1 X151.697 Y89.205 E0.01343
G1 X151.290 Y89.063 E0.01358
G1 X151.135 Y89.045 E0.00493
G1 X152.755 Y90.665 E0.07223
G1 X152.792 Y90.998 E0.01055
G1 X152.792 Y91.239 E0.00760
G1 X150.561 Y89.008 E0.09947
G1 X150.025 Y89.008 E0.01690
G1 X152.792 Y91.775 E0.12338
G1 X152.792 Y92.311 E0.01690
G1 X149.489 Y89.008 E0.14728
G1 X148.952 Y89.008 E0.01690
G1 X152.792 Y92.848 E0.17118
G1 X152.792 Y93.384 E0.01690
G1 X148.416 Y89.008 E0.19509
G1 X147.880 Y89.008 E0.01690
G1 X152.792 Y93.920 E0.21899
G1 X152.792 Y94.456 E0.01690
G1 X147.344 Y89.008 E0.24290
G1 X146.808 Y89.008 E0.01690
G1 X152.792 Y94.992 E0.26680
G1 X152.792 Y95.528 E0.01690
G1 X146.272 Y89.008 E0.29070
G1 X145.735 Y89.008 E0.01690
G1 X152.792 Y96.065 E0.31461
G1 X152.792 Y96.601 E0.01690
G1 X145.199 Y89.008 E0.33851
G1 X144.663 Y89.008 E0.01690
G1 X152.792 Y97.137 E0.36241
G1 X152.792 Y97.673 E0.01690
G1 X144.127 Y89.008 E0.38632
G1 X143.591 Y89.008 E0.01690
G1 X152.792 Y98.209 E0.41022
G1 X152.792 Y98.745 E0.01690
G1 X143.055 Y89.008 E0.43413
G1 X142.518 Y89.008 E0.01690
G1 X152.792 Y99.282 E0.45803
G1 X152.792 Y99.818 E0.01690
G1 X141.982 Y89.008 E0.48193
G1 X141.446 Y89.008 E0.01690
G1 X152.792 Y100.354 E0.50584
G1 X152.792 Y100.890 E0.01690
G1 X140.910 Y89.008 E0.52974
G1 X140.374 Y89.008 E0.01690
G1 X152.792 Y101.426 E0.55365
G1 X152.792 Y101.962 E0.01690
G1 X139.838 Y89.008 E0.57755
G1 X139.301 Y89.008 E0.01690
G1 X152.792 Y102.499 E0.60145
G1 X152.792 Y103.035 E0.01690
G1 X138.765 Y89.008 E0.62536
G1 X138.229 Y89.008 E0.01690
G1 X152.792 Y103.571 E0.64926
G1 X152.792 Y104.107 E0.01690
G1 X137.693 Y89.008 E0.67316
G1 X137.157 Y89.008 E0.01690
G1 X152.792 Y104.643 E0.69707
G1 X152.792 Y105.179 E0.01690
G1 X136.621 Y89.008 E0.72097
G1 X136.084 Y89.008 E0.01690
G1 X152.792 Y105.716 E0.74488
G1 X152.792 Y106.252 E0.01690
G1 X135.548 Y89.008 E0.76878
G1 X135.012 Y89.008 E0.01690
G1 X152.792 Y106.788 E0.79268
G1 X152.792 Y107.324 E0.01690
G1 X134.476 Y89.008 E0.81659
G1 X133.940 Y89.008 E0.01690
G1 X152.792 Y107.860 E0.84049
G1 X152.792 Y108.396 E0.01690
G1 X133.404 Y89.008 E0.86440
G1 X132.867 Y89.008 E0.01690
G1 X152.792 Y108.933 E0.88830
M73 Q1 S66
G1 X152.792 Y109.469 E0.01690
G1 X132.331 Y89.008 E0.91220
M73 P1 R66
G1 X131.795 Y89.008 E0.01690
G1 X152.792 Y110.005 E0.93611
G1 X152.792 Y110.541 E0.01690
G1 X131.259 Y89.008 E0.96001
G1 X130.723 Y89.008 E0.01690
G1 X152.792 Y111.077 E0.98391
G1 X152.792 Y111.613 E0.01690
G1 X130.187 Y89.008 E1.00782
G1 X129.650 Y89.008 E0.01690
G1 X152.792 Y112.150 E1.03172
G1 X152.792 Y112.686 E0.01690
G1 X129.114 Y89.008 E1.05563
G1 X128.578 Y89.008 E0.01690
G1 X152.792 Y113.222 E1.07953
G1 X152.792 Y113.758 E0.01690
G1 X128.042 Y89.008 E1.10343
G1 X127.506 Y89.008 E0.01690
G1 X152.792 Y114.294 E1.12734
G1 X152.792 Y114.831 E0.01690
G1 X126.969 Y89.008 E1.15124
G1 X126.433 Y89.008 E0.01690
G1 X152.792 Y115.367 E1.17515
G1 X152.792 Y115.903 E0.01690
G1 X125.897 Y89.008 E1.19905
G1 X125.361 Y89.008 E0.01690
G1 X152.792 Y116.439 E1.22295
G1 X152.792 Y116.975 E0.01690
G1 X124.825 Y89.008 E1.24686
G1 X124.289 Y89.008 E0.01690
G1 X152.792 Y117.511 E1.27076
G1 X152.792 Y118.048 E0.01690
G1 X123.752 Y89.008 E1.29466
G1 X123.216 Y89.008 E0.01690
G1 X152.792 Y118.584 E1.31857
G1 X152.780 Y119.108 E0.01653
G1 X122.680 Y89.008 E1.34194
G1 X122.144 Y89.008 E0.01690
G1 X152.708 Y119.572 E1.36264
G1 X152.595 Y119.897 E0.01083
G1 X152.557 Y119.957 E0.00225
G1 X121.608 Y89.008 E1.37979
G1 X121.072 Y89.008 E0.01690
G1 X152.345 Y120.282 E1.39427
G1 X152.077 Y120.550 E0.01195
G1 X120.535 Y89.008 E1.40622
G1 X119.999 Y89.008 E0.01690
G1 X151.752 Y120.760 E1.41560
G1 X151.366 Y120.911 E0.01305
G1 X119.463 Y89.008 E1.42231
G1 X118.927 Y89.008 E0.01690
G1 X150.900 Y120.981 E1.42545
G1 X150.375 Y120.992 E0.01656
G1 X118.391 Y89.008 E1.42594
G1 X117.855 Y89.008 E0.01690
G1 X149.839 Y120.992 E1.42594
G1 X149.303 Y120.992 E0.01690
G1 X117.318 Y89.008 E1.42594
G1 X116.782 Y89.008 E0.01690
G1 X148.767 Y120.992 E1.42594
G1 X148.230 Y120.992 E0.01690
G1 X116.246 Y89.008 E1.42594
M73 Q3 S65
M73 P3 R65
G1 X115.710 Y89.008 E0.01690
G1 X147.694 Y120.992 E1.42594
G1 X147.158 Y120.992 E0.01690
G1 X115.174 Y89.008 E1.42594
G1 X114.638 Y89.008 E0.01690
G1 X146.622 Y120.992 E1.42594
G1 X146.086 Y120.992 E0.01690
G1 X114.101 Y89.008 E1.42594
G1 X113.565 Y89.008 E0.01690
G1 X145.550 Y120.992 E1.42594
G1 X145.013 Y120.992 E0.01690
G1 X113.029 Y89.008 E1.42594
G1 X112.493 Y89.008 E0.01690
G1 X144.477 Y120.992 E1.42594
G1 X143.941 Y120.992 E0.01690
G1 X111.957 Y89.008 E1.42594
G1 X111.421 Y89.008 E0.01690
G1 X143.405 Y120.992 E1.42594
G1 X142.869 Y120.992 E0.01690
G1 X110.884 Y89.008 E1.42594
G1 X110.348 Y89.008 E0.01690
G1 X142.332 Y120.992 E1.42594
G1 X141.796 Y120.992 E0.01690
G1 X109.812 Y89.008 E1.42594
G1 X109.276 Y89.008 E0.01690
G1 X141.260 Y120.992 E1.42594
G1 X140.724 Y120.992 E0.01690
G1 X108.740 Y89.008 E1.42594
G1 X108.204 Y89.008 E0.01690
G1 X140.188 Y120.992 E1.42594
G1 X139.652 Y120.992 E0.01690
G1 X107.667 Y89.008 E1.42594
G1 X107.131 Y89.008 E0.01690
G1 X139.115 Y120.992 E1.42594
G1 X138.579 Y120.992 E0.01690
G1 X106.595 Y89.008 E1.42594
G1 X106.059 Y89.008 E0.01690
G1 X138.043 Y120.992 E1.42594
G1 X137.507 Y120.992 E0.01690
G1 X105.523 Y89.008 E1.42594
G1 X104.987 Y89.008 E0.01690
G1 X136.971 Y120.992 E1.42594
G1 X136.435 Y120.992 E0.01690
G1 X104.450 Y89.008 E1.42594
G1 X103.914 Y89.008 E0.01690
G1 X135.898 Y120.992 E1.42594
G1 X135.362 Y120.992 E0.01690
G1 X103.378 Y89.008 E1.42594
G1 X102.842 Y89.008 E0.01690
G1 X134.826 Y120.992 E1.42594
G1 X134.290 Y120.992 E0.01690
G1 X102.306 Y89.008 E1.42594
G1 X101.770 Y89.008 E0.01690
G1 X133.754 Y120.992 E1.42594
M73 Q4 S64
M73 P4 R64
G1 X133.218 Y120.992 E0.01690
G1 X101.233 Y89.008 E1.42594
G1 X100.697 Y89.008 E0.01690
G1 X132.681 Y120.992 E1.42594
G1 X132.145 Y120.992 E0.01690
G1 X100.161 Y89.008 E1.42594
G1 X99.625 Y89.008 E0.01690
G1 X131.609 Y120.992 E1.42594
G1 X131.073 Y120.992 E0.01690
G1 X99.100 Y89.019 E1.42545
G1 X98.710 Y89.063 E0.01236
G1 X98.634 Y89.089 E0.00254
G1 X130.537 Y120.992 E1.42231
G1 X130.001 Y120.992 E0.01690
G1 X98.248 Y89.240 E1.41560
G1 X97.923 Y89.450 E0.01222
G1 X129.464 Y120.992 E1.40621
G1 X128.928 Y120.992 E0.01690
G1 X97.655 Y89.718 E1.39426
G1 X97.443 Y90.043 E0.01221
G1 X128.392 Y120.992 E1.37979
G1 X127.856 Y120.992 E0.01690
G1 X97.292 Y90.428 E1.36264
G1 X97.263 Y90.510 E0.00274
G1 X97.220 Y90.892 E0.01212
G1 X127.320 Y120.992 E1.34194
G1 X126.784 Y120.992 E0.01690
G1 X97.208 Y91.416 E1.31856
G1 X97.208 Y91.953 E0.01690
G1 X126.247 Y120.992 E1.29466
G1 X125.711 Y120.992 E0.01690
G1 X97.208 Y92.489 E1.27076
G1 X97.208 Y93.025 E0.01690
G1 X125.175 Y120.992 E1.24685
G1 X124.639 Y120.992 E0.01690
G1 X97.208 Y93.561 E1.22295
G1 X97.208 Y94.097 E0.01690
G1 X124.103 Y120.992 E1.19904
G1 X123.567 Y120.992 E0.01690
G1 X97.208 Y94.633 E1.17514
G1 X97.208 Y95.170 E0.01690
G1 X123.030 Y120.992 E1.15124
G1 X122.494 Y120.992 E0.01690
G1 X97.208 Y95.706 E1.12733
G1 X97.208 Y96.242 E0.01690
G1 X121.958 Y120.992 E1.10343
G1 X121.422 Y120.992 E0.01690
G1 X97.208 Y96.778 E1.07952
G1 X97.208 Y97.314 E0.01690
G1 X120.886 Y120.992 E1.05562
G1 X120.350 Y120.992 E0.01690
G1 X97.208 Y97.850 E1.03172
G1 X97.208 Y98.387 E0.01690
G1 X119.813 Y120.992 E1.00781
G1 X119.277 Y120.992 E0.01690
G1 X97.208 Y98.923 E0.98391
G1 X97.208 Y99.459 E0.01690
G1 X118.741 Y120.992 E0.96001
G1 X118.205 Y120.992 E0.01690
G1 X97.208 Y99.995 E0.93610
G1 X97.208 Y100.531 E0.01690
G1 X117.669 Y120.992 E0.91220
G1 X117.133 Y120.992 E0.01690
G1 X97.208 Y101.067 E0.88829
M73 Q6 S63
M73 P6 R63
G1 X97.208 Y101.604 E0.01690
G1 X116.596 Y120.992 E0.86439
G1 X116.060 Y120.992 E0.01690
G1 X97.208 Y102.140 E0.84049
G1 X97.208 Y102.676 E0.01690
G1 X115.524 Y120.992 E0.81658
G1 X114.988 Y120.992 E0.01690
G1 X97.208 Y103.212 E0.79268
G1 X97.208 Y103.748 E0.01690
G1 X114.452 Y120.992 E0.76877
G1 X113.916 Y120.992 E0.01690
G1 X97.208 Y104.284 E0.74487
G1 X97.208 Y104.821 E0.01690
G1 X113.379 Y120.992 E0.72097
G1 X112.843 Y120.992 E0.01690
G1 X97.208 Y105.357 E0.69706
G1 X97.208 Y105.893 E0.01690
G1 X112.307 Y120.992 E0.67316
G1 X111.771 Y120.992 E0.01690
G1 X97.208 Y106.429 E0.64926
G1 X97.208 Y106.965 E0.01690
G1 X111.235 Y120.992 E0.62535
G1 X110.698 Y120.992 E0.01690
G1 X97.208 Y107.502 E0.60145
G1 X97.208 Y108.038 E0.01690
G1 X110.162 Y120.992 E0.57754
G1 X109.626 Y120.992 E0.01690
G1 X97.208 Y108.574 E0.55364
G1 X97.208 Y109.110 E0.01690
G1 X109.090 Y120.992 E0.52974
G1 X108.554 Y120.992 E0.01690
G1 X97.208 Y109.646 E0.50583
G1 X97.208 Y110.182 E0.01690
G1 X108.018 Y120.992 E0.48193
G1 X107.481 Y120.992 E0.01690
G1 X97.208 Y110.719 E0.45802
G1 X97.208 Y111.255 E0.01690
G1 X106.945 Y120.992 E0.43412
G1 X106.409 Y120.992 E0.01690
G1 X97.208 Y111.791 E0.41022
G1 X97.208 Y112.327 E0.01690
G1 X105.873 Y120.992 E0.38631
G1 X105.337 Y120.992 E0.01690
G1 X97.208 Y112.863 E0.36241
G1 X97.208 Y113.399 E0.01690
G1 X104.801 Y120.992 E0.33851
G1 X104.264 Y120.992 E0.01690
G1 X97.208 Y113.936 E0.31460
G1 X97.208 Y114.472 E0.01690
G1 X103.728 Y120.992 E0.29070
G1 X103.192 Y120.992 E0.01690
G1 X97.208 Y115.008 E0.26679
G1 X97.208 Y115.544 E0.01690
G1 X102.656 Y120.992 E0.24289
G1 X102.120 Y120.992 E0.01690
G1 X97.208 Y116.080 E0.21899
G1 X97.208 Y116.616 E0.01690
G1 X101.584 Y120.992 E0.19508
G1 X101.047 Y120.992 E0.01690
G1 X97.208 Y117.153 E0.17118
G1 X97.208 Y117.689 E0.01690
G1 X100.511 Y120.992 E0.14727
G1 X99.975 Y120.992 E0.01690
G1 X97.208 Y118.225 E0.12337
G1 X97.208 Y118.761 E0.01690
G1 X99.439 Y120.992 E0.09947
G1 X99.198 Y120.992 E0.00759
G1 X98.865 Y120.955 E0.01056
G1 X97.245 Y119.335 E0.07222
G1 X97.263 Y119.490 E0.00493
G1 X97.405 Y119.897 E0.01358
G1 X97.632 Y120.257 E0.01344
G1 X98.374 Y120.999 E0.03307
M106 S255
;BEFORE_LAYER_CHANGE
G92 E0.0
;0.35


G1 F8640.000
G1 X97.632 Y120.257 E-0.24224
G1 X97.405 Y119.897 E-0.09842
G1 X97.263 Y119.490 E-0.09945
G1 X97.245 Y119.335 E-0.03608
G1 X98.115 Y120.204 E-0.28382
G1 E-0.04000 F2100.00000
G1 Z0.800 F10800.000
;AFTER_LAYER_CHANGE
;0.35
M104 S210 ; set temperature
G1 X95.732 Y123.222
G1 Z0.350
G1 E0.80000 F2100.00000
G1 F3000.000
G1 X94.802 Y122.233 E0.03285
G1 X94.295 Y121.399 E0.02361
G1 X93.961 Y120.489 E0.02344
G1 X93.762 Y119.141 E0.03296
G1 X93.762 Y90.862 E0.68393
G1 X93.903 Y89.712 E0.02802
G1 X94.324 Y88.544 E0.03003
G1 X94.978 Y87.532 E0.02912
G1 X95.967 Y86.602 E0.03285
G1 X96.805 Y86.093 E0.02370
G1 X97.715 Y85.760 E0.02344
G1 X99.093 Y85.561 E0.03369
G1 X150.866 Y85.561 E1.25211
G1 X152.018 Y85.687 E0.02802
G1 X152.999 Y86.010 E0.02499
G1 X154.383 Y86.882 E0.03958
G1 X155.094 Y87.621 E0.02480
G1 X155.708 Y88.608 E0.02811
G1 X156.094 Y89.701 E0.02803
G1 X156.231 Y90.740 E0.02534
G1 X156.234 Y119.222 E0.68883
G1 X156.092 Y120.310 E0.02655
G1 X155.667 Y121.473 E0.02994
G1 X155.020 Y122.470 E0.02875
G1 X154.033 Y123.398 E0.03276
G1 X153.195 Y123.907 E0.02370
G1 X152.285 Y124.240 E0.02344
G1 X150.908 Y124.439 E0.03366
G1 X99.092 Y124.439 E1.25315
G1 X97.919 Y124.299 E0.02857
